X:1
T:Glendale Meadows
M:C
L:1/8
Q:80
C:Composed by T. Tully
S:March
K:HP
{g}A3/2B/2|
{g}c/2e3/2{g}B{d}c{G}A2{g}B{d}c|
{Gdc}d3/2c/2{g}Af{gef}e2{g}f3/2g/2|  !
a3/2g/2{a}fe{g}c/2f3/2{gef}e3/2c/2|
{g}B4{GdGe}B2{g}A3/2B/2{g}c/2e3/2{g}B{d}c{G}A2{g}B{d}c|
{Gdc}d3/2c/2{g}Af{gef}e2{g}f3/2g/2|  !
a3/2f/2{g}e3/2c/2{g}B/2d3/2{gcd}c{e}B|
{G}A4{GAG}A2|]
{g}f3/2g/2|  !
a3f{gef}e2{gcd}c2|
{Gdc}d3/2c/2{g}Af{gef}e2{gcd}c3/2B/2|
{G}A3/2B/2{GdG}c{e}A{g}c/2f3/2{gef}e3/2c/2|  !
{g}B4{GdGe}B2{g}A3/2B/2{g}c/2e3/2{g}B{d}c{G}A2{g}B{d}c|
{Gdc}d3/2c/2{g}Af{gef}e2{g}f3/2g/2|
a3/2f/2{g}e3/2c/2{g}B/2d3/2{gcd}c{e}B|  !
{G}A4{GAG}A2|]

